public/icon/tg-earn.svg

<svg width="45" height="45" viewBox="0 0 45 45" fill="none" xmlns="http://www.w3.org/2000/svg">
<path d="M37.2518 41.9906H7.73457C7.09042 42.0047 6.45017 41.8872 5.85295 41.6454C5.25574 41.4036 4.7141 41.0426 4.26113 40.5844C3.80158 40.1324 3.43967 39.591 3.19778 38.9935C2.9559 38.396 2.83919 37.7553 2.85488 37.1109V7.70625C2.83259 7.06267 2.9421 6.42132 3.17667 5.8216C3.41124 5.22187 3.76592 4.67643 4.21894 4.21875C4.67681 3.75529 5.22532 3.39121 5.83021 3.14926C6.4351 2.9073 7.08338 2.79266 7.73457 2.8125H37.2658C37.9169 2.7935 38.5649 2.90853 39.1697 3.15044C39.7745 3.39235 40.3231 3.75597 40.7814 4.21875C41.2386 4.66958 41.599 5.20884 41.8408 5.80362C42.0826 6.3984 42.2006 7.03621 42.1877 7.67813V37.0828C42.2034 37.7272 42.0867 38.3679 41.8448 38.9654C41.6029 39.5628 41.241 40.1043 40.7814 40.5563C40.3239 41.0259 39.7741 41.3957 39.1666 41.6426C38.5592 41.8894 37.9072 42.0079 37.2518 41.9906ZM29.6861 32.5547C29.9658 32.5797 30.2445 32.4978 30.4663 32.3256C30.688 32.1534 30.8364 31.9037 30.8814 31.6266L34.7768 12.9938C34.7879 12.8737 34.7709 12.7526 34.7269 12.6403C34.6829 12.528 34.6133 12.4275 34.5236 12.3469C34.3675 12.1988 34.1622 12.1136 33.9471 12.1078C33.8721 12.1078 26.1236 14.9719 10.7018 20.7C10.5277 20.7555 10.3769 20.8669 10.2726 21.017C10.1684 21.167 10.1165 21.3472 10.1252 21.5297C10.135 21.7001 10.1989 21.8629 10.3077 21.9944C10.4165 22.1259 10.5644 22.2193 10.7299 22.2609L16.3549 24.0047L18.6189 30.7969C18.6781 30.982 18.7974 31.142 18.9579 31.2516C19.1184 31.3611 19.3109 31.4139 19.5049 31.4016C19.6098 31.4012 19.7137 31.3799 19.8103 31.3388C19.9069 31.2978 19.9943 31.2378 20.0674 31.1625L23.2596 28.125L29.0111 32.3438C29.2115 32.4768 29.4457 32.5499 29.6861 32.5547ZM19.4064 29.1234L17.7049 23.4984C25.8799 18.2953 29.9955 15.6938 30.0518 15.6938C30.2627 15.6938 30.3752 15.6938 30.3752 15.9188C30.3799 15.9467 30.3799 15.9752 30.3752 16.0031C30.3752 16.0031 26.8455 19.2375 19.8002 25.5656L19.4064 29.1234Z" fill="url(#paint0_linear_199_1178)"/>
<defs>
<linearGradient id="paint0_linear_199_1178" x1="2.85205" y1="22.4013" x2="42.1891" y2="22.4013" gradientUnits="userSpaceOnUse">
<stop stop-color="#3068D0"/>
<stop offset="0.5" stop-color="#836BAF"/>
<stop offset="1" stop-color="#978262"/>
</linearGradient>
</defs>
</svg>

<svg xmlns="http://www.w3.org/2000/svg" width="45" height="45" fill="none"><path fill="url(#a)" d="M37.252 41.99H7.735a4.738 4.738 0 0 1-3.474-1.406 4.711 4.711 0 0 1-1.406-3.473V7.706A4.725 4.725 0 0 1 4.219 4.22a4.739 4.739 0 0 1 3.516-1.407h29.53a4.753 4.753 0 0 1 3.516 1.407 4.724 4.724 0 0 1 1.407 3.46v29.404a4.71 4.71 0 0 1-1.407 3.473 4.752 4.752 0 0 1-3.53 1.435Zm-7.566-9.435a1.11 1.11 0 0 0 1.195-.928l3.896-18.633a.774.774 0 0 0-.253-.647.872.872 0 0 0-.577-.24c-.075 0-7.823 2.865-23.245 8.593a.83.83 0 0 0-.577.83.801.801 0 0 0 .605.73l5.625 1.745 2.264 6.792a.872.872 0 0 0 .886.605.788.788 0 0 0 .562-.24l3.193-3.037 5.751 4.219c.2.133.435.206.675.21Zm-10.28-3.432-1.701-5.625c8.175-5.203 12.29-7.804 12.347-7.804.21 0 .323 0 .323.225a.254.254 0 0 1 0 .084s-3.53 3.235-10.575 9.563l-.394 3.557Z"/><defs><linearGradient id="a" x1="2.852" x2="42.189" y1="22.401" y2="22.401" gradientUnits="userSpaceOnUse"><stop stop-color="#3068D0"/><stop offset=".5" stop-color="#836BAF"/><stop offset="1" stop-color="#978262"/></linearGradient></defs></svg>
